X: 189
T:the Marchioness of Cornwallis' Strathspey
B:William Marshall's Scottish Airs, Melodies, Strathspeys, Reels &c (1822)
C:William Marshall
L:1/8
M:C
O:Scotland
R:Slow Strathspey
Z:Clark Bernst + Richard Robinson
%%Page:22 - 1
F:http://richardrobinson.tunebook.org.uk/tune/4032
%%TBL:{"version":1,"type":"tune","id":"4032"}
K:Eb
%%staves {1 2}
V:1
"^Slow"
B,/A,/ | \
A,B,-!trill!B,>!wedge!D {C}E2 (.G,E) | (B,EB)!wedge!E {EF}GF- FB,/A,/ | \
G,B,- B,!wedge!C/D/ [G,E]2 [G,(E]e) | {d}c>BAB G[G,E] [G,E]  :|
c/d/ | \
(e/d/)c/B/ (.e.B) .d.B.e.B | .f.B{B}a>g gf-f.g | \
{fg}a>gfe (edcB) | {d}e>cBB, CE- Ec/d/ |
.e.E.c.E .B.E.G.E | {g}a>f{a}g>e df-f>.B, | \
(C!p!E)(DF) (EB)(Ge) | {d}c>BAB GE E |]
V:2 middle=d clef=bass
L:1/4
z/ | EeE/e/E/z/ | EeB/b/B/z/ | EeE/e/E/G/ | ABE/e/E/ :| \
z/ | eeBe | deB/b/B/z/ | eebB | AB E/e/E/z/ | eage | de B/b/B/z/ | ABee/g/ | abee/ |]

